64x64/apps/gmpc.svg

<svg xmlns="http://www.w3.org/2000/svg" width="64" height="64" version="1">
 <path style="opacity:0.2" d="m 54.722622,7.1406613 c -0.221611,0.01296 -0.458357,0.044482 -0.710937,0.097656 L 24.062488,14.144563 c -4.221512,0.532153 -4.062497,4.855465 -4.062497,4.855465 v 3.999997 1.999999 22.021984 c 4.731494,1.341251 7.997812,-3.939925 7.999994,0.978 V 25.000024 21.316432 L 49.99997,16.082061 v 8.917963 16.021989 c 4.731494,1.341251 7.997812,-3.939926 7.999994,0.977999 V 14.398469 11.000034 c 0,0 0.04684,-4.053859 -3.277342,-3.8593727 z m 3.277342,34.8593507 c -0.0038,0.366764 -0.02598,0.733105 -0.0664,1.097655 0.0054,-0.03244 0.0126,-0.06454 0.0156,-0.09766 h 0.0508 z m -29.999979,5.999996 c -0.0044,0.334049 -0.02388,0.667729 -0.0586,0.999999 h 0.0078 0.0508 z"/>
 <path style="fill:#5652d2" d="m 54.722622,6.1406627 c -0.221611,0.01296 -0.458357,0.044482 -0.710937,0.097656 L 24.062488,13.144564 c -4.221512,0.532153 -4.062497,4.855465 -4.062497,4.855465 v 3.999998 1.999998 22.021985 c 4.731494,1.341251 7.997812,-3.939925 7.999994,0.977999 V 24.000025 20.316434 L 49.99997,15.082063 v 8.917962 16.021989 c 4.731494,1.341251 7.997812,-3.939925 7.999994,0.977999 V 13.39847 10.000035 c 0,0 0.04684,-4.0538586 -3.277342,-3.8593723 z m 3.277342,34.8593503 c -0.0038,0.366764 -0.02598,0.733106 -0.0664,1.097656 0.0054,-0.03244 0.0126,-0.06454 0.0156,-0.09766 h 0.0508 z m -29.999979,5.999996 c -0.0044,0.33405 -0.02388,0.66773 -0.0586,0.999999 h 0.0078 0.0508 z"/>
 <path style="opacity:0.2" d="M 46.999972,31.00002 A 10.999992,10.999992 0 0 0 35.99998,42.000012 10.999992,10.999992 0 0 0 46.999972,53.000004 10.999992,10.999992 0 0 0 57.999964,42.000012 10.999992,10.999992 0 0 0 46.999972,31.00002 Z M 16.999993,37.000015 A 10.999992,10.999992 0 0 0 6.0000006,48.000008 10.999992,10.999992 0 0 0 16.999993,59 10.999992,10.999992 0 0 0 27.999985,48.000008 10.999992,10.999992 0 0 0 16.999993,37.000015 Z"/>
 <path style="fill:#3c8cf8" d="M 46.999972,30.000021 A 10.999992,10.999992 0 0 0 35.99998,41.000013 10.999992,10.999992 0 0 0 46.999972,52.000006 10.999992,10.999992 0 0 0 57.999964,41.000013 10.999992,10.999992 0 0 0 46.999972,30.000021 Z M 16.999993,36.000017 A 10.999992,10.999992 0 0 0 6.0000006,47.000009 10.999992,10.999992 0 0 0 16.999993,58.000001 10.999992,10.999992 0 0 0 27.999985,47.000009 10.999992,10.999992 0 0 0 16.999993,36.000017 Z"/>
 <path style="opacity:0.1;fill:#f4f4f7" d="M 54.722656 6.140625 C 54.501045 6.153585 54.264299 6.1851073 54.011719 6.2382812 L 24.0625 13.144531 C 19.840988 13.676684 20 18 20 18 L 20 19 C 20 19 19.840988 14.676684 24.0625 14.144531 L 54.011719 7.2382812 C 54.264299 7.1851073 54.501045 7.153585 54.722656 7.140625 C 58.046838 6.9461386 58 11 58 11 L 58 10 C 58 10 58.046838 5.9461386 54.722656 6.140625 z"/>
 <path style="opacity:0.2;fill:#f4f4f7" d="M 47 30 A 10.999992 10.999992 0 0 0 36 41 A 10.999992 10.999992 0 0 0 36.021484 41.416016 A 10.999992 10.999992 0 0 1 47 31 A 10.999992 10.999992 0 0 1 57.974609 41.488281 A 10.999992 10.999992 0 0 0 58 41 A 10.999992 10.999992 0 0 0 47 30 z M 17 36 A 10.999992 10.999992 0 0 0 6 47 A 10.999992 10.999992 0 0 0 6.0214844 47.416016 A 10.999992 10.999992 0 0 1 17 37 A 10.999992 10.999992 0 0 1 27.974609 47.488281 A 10.999992 10.999992 0 0 0 28 47 A 10.999992 10.999992 0 0 0 17 36 z"/>
</svg>

<svg xmlns="http://www.w3.org/2000/svg" width="64" height="64" version="1"><path style="opacity:.2" d="M54.723 7.14a4.818 4.818 0 0 0-.711.098l-29.95 6.907C19.841 14.677 20 19 20 19v28.022c4.731 1.341 7.998-3.94 8 .978V21.316l22-5.234V41.022c4.731 1.341 7.998-3.94 8 .978V11s.047-4.054-3.277-3.86zM58 42c-.004.367-.026.733-.066 1.098.005-.033.012-.065.015-.098H58zm-30 6c-.004.334-.024.668-.059 1H28z"/><path style="fill:#5652d2" d="M54.723 6.14a4.818 4.818 0 0 0-.711.098l-29.95 6.907C19.841 13.677 20 18 20 18v28.022c4.731 1.341 7.998-3.94 8 .978V20.316l22-5.234V40.022c4.731 1.341 7.998-3.94 8 .978V10s.047-4.054-3.277-3.86zM58 41c-.004.367-.026.733-.066 1.098.005-.033.012-.065.015-.098H58zm-30 6c-.004.334-.024.668-.059 1H28z"/><path style="opacity:.2" d="M47 31a11 11 0 0 0-11 11 11 11 0 0 0 11 11 11 11 0 0 0 11-11 11 11 0 0 0-11-11zm-30 6A11 11 0 0 0 6 48a11 11 0 0 0 11 11 11 11 0 0 0 11-11 11 11 0 0 0-11-11z"/><path style="fill:#3c8cf8" d="M47 30a11 11 0 0 0-11 11 11 11 0 0 0 11 11 11 11 0 0 0 11-11 11 11 0 0 0-11-11zm-30 6A11 11 0 0 0 6 47a11 11 0 0 0 11 11 11 11 0 0 0 11-11 11 11 0 0 0-11-11z"/><path style="opacity:.1;fill:#f4f4f7" d="M54.723 6.14a4.818 4.818 0 0 0-.711.098l-29.95 6.907C19.841 13.677 20 18 20 18v1s-.159-4.323 4.063-4.855l29.949-6.907c.252-.053.489-.084.71-.097C58.048 6.946 58 11 58 11v-1s.047-4.054-3.277-3.86z"/><path style="opacity:.2;fill:#f4f4f7" d="M47 30a11 11 0 0 0-11 11 11 11 0 0 0 .021.416A11 11 0 0 1 47 31a11 11 0 0 1 10.975 10.488A11 11 0 0 0 58 41a11 11 0 0 0-11-11zm-30 6A11 11 0 0 0 6 47a11 11 0 0 0 .021.416A11 11 0 0 1 17 37a11 11 0 0 1 10.975 10.488A11 11 0 0 0 28 47a11 11 0 0 0-11-11z"/></svg>
